X: 38676
T: Stranger At The Gate
R: reel
M: 4/4
K: Edorian
ABEF GBEG|FDAF ~D2GA-|ABdB =cAFB|EGFD ~A3F|
BGEF GABG|ABde fdec|dBAF DEFA|1 BDAF EBBA:|2 BDAF ~e3z||
(3B/c/d/ ef gfeg|fedf edBA|Bcde fdec|dBAF DFED|
[1 =cDEF GABG|ABde fdec|dBAF DEFA|BFAF ~e3z:|
[2 =c2EF GABG|ABde f2ea|(3f/e/d/ AF DEFA|BFAF EBBA||

